public/assets/images/icons/book.svg

<svg width="120" height="120" viewBox="0 0 120 120" fill="none" xmlns="http://www.w3.org/2000/svg">
<path d="M70.9095 41.7039H49.3588C45.537 41.7039 42.0963 40.1688 39.5725 37.6446C37.0486 35.1205 35.5137 31.6691 35.5137 27.8571C35.5137 20.2228 41.7358 14 49.3691 14H70.9198C74.7417 14 78.1824 15.5351 80.7062 18.0593C83.2301 20.5834 84.765 24.0348 84.765 27.8468C84.765 35.4811 78.5429 41.7039 70.9095 41.7039Z" fill="#E6C3E6"/>
<path d="M49.3691 14.5H70.9199C74.4888 14.5 77.7114 15.8877 80.1221 18.1875L80.3525 18.4131C82.7862 20.8471 84.2646 24.1725 84.2646 27.8467C84.2646 35.2049 78.2664 41.2041 70.9092 41.2041H49.3584C45.7899 41.204 42.5678 39.8161 40.1572 37.5166L39.9258 37.291C37.4922 34.8571 36.0138 31.5315 36.0137 27.8574C36.0137 20.4992 42.012 14.5 49.3691 14.5Z" stroke="url(#paint0_linear_911_3229)" stroke-opacity="0.32"/>
<foreignObject x="-6.7998" y="-5.64966" width="133.6" height="141.649"><div xmlns="http://www.w3.org/1999/xhtml" style="backdrop-filter:blur(15px);clip-path:url(#bgblur_0_911_3229_clip_path);height:100%;width:100%"></div></foreignObject><g data-figma-bg-blur-radius="30">
<path d="M78.3925 24.3503H41.6002C31.4344 24.3503 23.2002 27.7979 23.2002 42.7503V87.5998C23.2002 101.398 31.4344 106 41.6002 106H78.4002C88.566 106 96.8002 101.398 96.8002 87.5998V42.7503C96.8002 27.7979 88.566 24.3503 78.4002 24.3503H78.3925Z" fill="url(#paint1_linear_911_3229)" fill-opacity="0.3"/>
<path d="M41.6006 24.8503H78.4004C83.4443 24.8504 87.9012 25.7094 91.0957 28.3298C94.2694 30.9334 96.2998 35.3644 96.2998 42.7507V87.5994C96.2998 94.3958 94.2762 98.84 91.0859 101.595C87.8818 104.363 83.4179 105.5 78.4004 105.5H41.6006C36.583 105.5 32.1192 104.363 28.915 101.595C25.7245 98.8401 23.7002 94.396 23.7002 87.5994V42.7507C23.7002 35.3642 25.7314 30.9333 28.9053 28.3298C32.0998 25.7094 36.5566 24.8503 41.6006 24.8503Z" stroke="url(#paint2_linear_911_3229)" stroke-opacity="0.32"/>
</g>
<path d="M41.6006 24.8503H78.4004C83.4443 24.8504 87.9012 25.7094 91.0957 28.3298C94.2694 30.9334 96.2998 35.3644 96.2998 42.7507V87.5994C96.2998 94.3958 94.2762 98.84 91.0859 101.595C87.8818 104.363 83.4179 105.5 78.4004 105.5H41.6006C36.583 105.5 32.1192 104.363 28.915 101.595C25.7245 98.8401 23.7002 94.396 23.7002 87.5994V42.7507C23.7002 35.3642 25.7314 30.9333 28.9053 28.3298C32.0998 25.7094 36.5566 24.8503 41.6006 24.8503Z" stroke="url(#paint3_linear_911_3229)" stroke-opacity="0.32"/>
<path d="M41.6009 68.0456C39.7155 68.0456 38.1533 66.4834 38.1533 64.598C38.1533 62.7126 39.7155 61.1504 41.6009 61.1504H60.0009C61.8863 61.1504 63.4485 62.7126 63.4485 64.598C63.4485 66.4834 61.8863 68.0456 60.0009 68.0456H41.6009Z" fill="white"/>
<path d="M41.6006 61.6504H60.001C61.6101 61.6504 62.9481 62.9886 62.9482 64.5977C62.9482 66.2069 61.6102 67.5459 60.001 67.5459H41.6006C39.9915 67.5457 38.6533 66.2068 38.6533 64.5977C38.6535 62.9887 39.9916 61.6506 41.6006 61.6504Z" stroke="url(#paint4_linear_911_3229)" stroke-opacity="0.32"/>
<path d="M41.6009 86.4457C39.7155 86.4457 38.1533 84.8835 38.1533 82.9981C38.1533 81.1127 39.7155 79.5505 41.6009 79.5505H78.4009C80.2863 79.5505 81.8485 81.1127 81.8485 82.9981C81.8485 84.8835 80.2863 86.4457 78.4009 86.4457H41.6009Z" fill="white"/>
<path d="M41.6006 80.0505H78.4014C80.0103 80.0508 81.3484 81.3888 81.3486 82.9978C81.3486 84.6069 80.0104 85.9458 78.4014 85.946H41.6006C39.9915 85.9459 38.6533 84.607 38.6533 82.9978C38.6535 81.3888 39.9916 80.0507 41.6006 80.0505Z" stroke="url(#paint5_linear_911_3229)" stroke-opacity="0.32"/>
<defs>
<clipPath id="bgblur_0_911_3229_clip_path" transform="translate(6.7998 5.64966)"><path d="M78.3925 24.3503H41.6002C31.4344 24.3503 23.2002 27.7979 23.2002 42.7503V87.5998C23.2002 101.398 31.4344 106 41.6002 106H78.4002C88.566 106 96.8002 101.398 96.8002 87.5998V42.7503C96.8002 27.7979 88.566 24.3503 78.4002 24.3503H78.3925Z"/>
</clipPath><linearGradient id="paint0_linear_911_3229" x1="42.6015" y1="13.0106" x2="72.3995" y2="43.9403" gradientUnits="userSpaceOnUse">
<stop stop-color="#FAE7FF" stop-opacity="0.52"/>
<stop offset="0.473958" stop-color="#E788FF"/>
<stop offset="1" stop-color="#F6B4FF" stop-opacity="0.1"/>
</linearGradient>
<linearGradient id="paint1_linear_911_3229" x1="60.0002" y1="24.3503" x2="60.0002" y2="106" gradientUnits="userSpaceOnUse">
<stop stop-color="#DE5AFF" stop-opacity="0.9"/>
<stop offset="0.505" stop-color="#FF56FC" stop-opacity="0.96"/>
<stop offset="0.676667" stop-color="#E44EFF" stop-opacity="0.9"/>
</linearGradient>
<linearGradient id="paint2_linear_911_3229" x1="33.7921" y1="21.4343" x2="106.232" y2="59.5596" gradientUnits="userSpaceOnUse">
<stop stop-color="#FAE7FF" stop-opacity="0.52"/>
<stop offset="0.473958" stop-color="#E788FF"/>
<stop offset="1" stop-color="#F6B4FF" stop-opacity="0.1"/>
</linearGradient>
<linearGradient id="paint3_linear_911_3229" x1="33.7921" y1="21.4343" x2="106.232" y2="59.5596" gradientUnits="userSpaceOnUse">
<stop stop-color="#FAE7FF" stop-opacity="0.52"/>
<stop offset="0.473958" stop-color="#E788FF"/>
<stop offset="1" stop-color="#F6B4FF" stop-opacity="0.1"/>
</linearGradient>
<linearGradient id="paint4_linear_911_3229" x1="41.7936" y1="60.9041" x2="47.4832" y2="73.0909" gradientUnits="userSpaceOnUse">
<stop stop-color="#FAE7FF" stop-opacity="0.52"/>
<stop offset="0.473958" stop-color="#E788FF"/>
<stop offset="1" stop-color="#F6B4FF" stop-opacity="0.1"/>
</linearGradient>
<linearGradient id="paint5_linear_911_3229" x1="44.4416" y1="79.3043" x2="48.1801" y2="93.1369" gradientUnits="userSpaceOnUse">
<stop stop-color="#FAE7FF" stop-opacity="0.52"/>
<stop offset="0.473958" stop-color="#E788FF"/>
<stop offset="1" stop-color="#F6B4FF" stop-opacity="0.1"/>
</linearGradient>
</defs>
</svg>

<svg xmlns="http://www.w3.org/2000/svg" width="120" height="120" fill="none"><path fill="#E6C3E6" d="M70.91 41.704H49.358a13.75 13.75 0 0 1-9.787-4.06 13.78 13.78 0 0 1-4.058-9.787C35.514 20.223 41.736 14 49.369 14h21.55c3.823 0 7.263 1.535 9.787 4.06a13.78 13.78 0 0 1 4.059 9.787c0 7.634-6.222 13.857-13.856 13.857"/><path stroke="url(#a)" stroke-opacity=".32" d="M49.37 14.5h21.55c3.569 0 6.791 1.388 9.202 3.688l.23.225a13.28 13.28 0 0 1 3.913 9.434c0 7.358-5.999 13.357-13.356 13.357H49.36c-3.57 0-6.791-1.388-9.202-3.687l-.231-.226a13.28 13.28 0 0 1-3.912-9.434c0-7.358 5.998-13.357 13.355-13.357Z"/><foreignObject width="133.6" height="141.649" x="-6.8" y="-5.65"><div xmlns="http://www.w3.org/1999/xhtml" style="backdrop-filter:blur(15px);clip-path:url(#b);height:100%;width:100%"/></foreignObject><g data-figma-bg-blur-radius="30"><path fill="url(#c)" fill-opacity=".3" d="M78.393 24.35H41.6c-10.166 0-18.4 3.448-18.4 18.4V87.6c0 13.798 8.234 18.4 18.4 18.4h36.8c10.166 0 18.4-4.602 18.4-18.4V42.75c0-14.952-8.234-18.4-18.4-18.4z"/><path stroke="url(#d)" stroke-opacity=".32" d="M41.6 24.85h36.8c5.044 0 9.501.86 12.696 3.48 3.173 2.603 5.204 7.034 5.204 14.42V87.6c0 6.796-2.024 11.24-5.214 13.995-3.204 2.768-7.668 3.905-12.686 3.905H41.6c-5.017 0-9.48-1.137-12.685-3.905-3.19-2.755-5.215-7.199-5.215-13.996V42.751c0-7.387 2.031-11.818 5.205-14.421 3.195-2.62 7.652-3.48 12.696-3.48Z"/></g><path stroke="url(#e)" stroke-opacity=".32" d="M41.6 24.85h36.8c5.044 0 9.501.86 12.696 3.48 3.173 2.603 5.204 7.034 5.204 14.42V87.6c0 6.796-2.024 11.24-5.214 13.995-3.204 2.768-7.668 3.905-12.686 3.905H41.6c-5.017 0-9.48-1.137-12.685-3.905-3.19-2.755-5.215-7.199-5.215-13.996V42.751c0-7.387 2.031-11.818 5.205-14.421 3.195-2.62 7.652-3.48 12.696-3.48Z"/><path fill="#fff" d="M41.6 68.046c-1.885 0-3.447-1.563-3.447-3.448s1.563-3.448 3.448-3.448H60c1.885 0 3.448 1.563 3.448 3.448S61.886 68.046 60 68.046z"/><path stroke="url(#f)" stroke-opacity=".32" d="M41.6 61.65h18.401c1.61 0 2.947 1.339 2.947 2.948s-1.338 2.948-2.947 2.948h-18.4c-1.61 0-2.948-1.34-2.948-2.948 0-1.61 1.339-2.947 2.948-2.948Z"/><path fill="#fff" d="M41.6 86.446c-1.885 0-3.447-1.562-3.447-3.448s1.563-3.448 3.448-3.448h36.8c1.885 0 3.448 1.563 3.448 3.448s-1.563 3.448-3.448 3.448z"/><path stroke="url(#g)" stroke-opacity=".32" d="M41.6 80.05h36.801c1.61 0 2.947 1.339 2.948 2.948s-1.339 2.948-2.948 2.948h-36.8c-1.61 0-2.948-1.339-2.948-2.948 0-1.61 1.339-2.947 2.948-2.948Z"/><defs><linearGradient id="a" x1="42.602" x2="72.4" y1="13.011" y2="43.94" gradientUnits="userSpaceOnUse"><stop stop-color="#FAE7FF" stop-opacity=".52"/><stop offset=".474" stop-color="#E788FF"/><stop offset="1" stop-color="#F6B4FF" stop-opacity=".1"/></linearGradient><linearGradient id="c" x1="60" x2="60" y1="24.35" y2="106" gradientUnits="userSpaceOnUse"><stop stop-color="#DE5AFF" stop-opacity=".9"/><stop offset=".505" stop-color="#FF56FC" stop-opacity=".96"/><stop offset=".677" stop-color="#E44EFF" stop-opacity=".9"/></linearGradient><linearGradient id="d" x1="33.792" x2="106.232" y1="21.434" y2="59.56" gradientUnits="userSpaceOnUse"><stop stop-color="#FAE7FF" stop-opacity=".52"/><stop offset=".474" stop-color="#E788FF"/><stop offset="1" stop-color="#F6B4FF" stop-opacity=".1"/></linearGradient><linearGradient id="e" x1="33.792" x2="106.232" y1="21.434" y2="59.56" gradientUnits="userSpaceOnUse"><stop stop-color="#FAE7FF" stop-opacity=".52"/><stop offset=".474" stop-color="#E788FF"/><stop offset="1" stop-color="#F6B4FF" stop-opacity=".1"/></linearGradient><linearGradient id="f" x1="41.794" x2="47.483" y1="60.904" y2="73.091" gradientUnits="userSpaceOnUse"><stop stop-color="#FAE7FF" stop-opacity=".52"/><stop offset=".474" stop-color="#E788FF"/><stop offset="1" stop-color="#F6B4FF" stop-opacity=".1"/></linearGradient><linearGradient id="g" x1="44.442" x2="48.18" y1="79.304" y2="93.137" gradientUnits="userSpaceOnUse"><stop stop-color="#FAE7FF" stop-opacity=".52"/><stop offset=".474" stop-color="#E788FF"/><stop offset="1" stop-color="#F6B4FF" stop-opacity=".1"/></linearGradient><clipPath id="b" transform="translate(6.8 5.65)"><path d="M78.393 24.35H41.6c-10.166 0-18.4 3.448-18.4 18.4V87.6c0 13.798 8.234 18.4 18.4 18.4h36.8c10.166 0 18.4-4.602 18.4-18.4V42.75c0-14.952-8.234-18.4-18.4-18.4z"/></clipPath></defs></svg>
